X:1
T:Three Grains of Corn
M:6/8
L:1/8
K:C
 G| G2 G GAB| c3- E G2|
M:7/8
 GABd-dc-A|
M:6/8
 G3- G2 E| G2 e c2 E| G2 F D2 E/2G/2|c-B cd-c B| c3- c2||

